X: 153
T: Chouni lianghui
L: 1/8
M: 2/4
K: F
f> d c f [I:setbarnb 1]| 
c G F C | 
F> G F C | 
F/ F/ F/ G/ F C | 
F F/ G/ F C | 
F/ F/ F/ G/ F C | 
F> G c c | 
C4 | 
f> d c f | 
c G F C | 
F F/ G/ F C | 
c G/ G/ F C | 
F/ F/ F/ G/ F C | 
c/ c/ c/ G/ F C | 
F Gc2- | 
c4 | 
fc2B | 
Gf3 | 
f> d c f | 
c G F C | 
F F/ G/ F C | 
F/ F/ F/ G/ F C | 
F F/ G/ F C | 
F/ F/ F/ G/ F C | 
F> G c c | 
C4 | 
f> d c f | 
c G F C | 
F> G F C | 
c> G F C | 
F> G F C | 
c> G F C | 
F> G F C | 
A/ c G/ F C | 
F> G F C | 
B> G F C | 
F Gc2- | 
c4 | 
fc2B | 
GF3 |]

@@@ Tune index: 9027
